src/svg/uEA03-target.svg

<svg xmlns="http://www.w3.org/2000/svg" viewBox="0 0 14 14"><path d="M14 6.7h-.9C13 3.6 10.4 1 7.3.9V0h-.6v.9C3.6 1 1 3.6.9 6.7H0v.5h.9c.1 3.2 2.7 5.8 5.8 5.9v.9h.5v-.9c3.2-.1 5.7-2.7 5.9-5.9h.9v-.5zm-1.7 0h-2.1c-.1-1.6-1.4-2.9-3-3v-2c2.8.1 5 2.3 5.1 5zM9 7.3c-.1.9-.8 1.6-1.7 1.7v-.2h-.6V9c-.9-.1-1.6-.8-1.7-1.7h.2v-.6H5c.1-.9.8-1.6 1.7-1.7v.2h.5V5c1 .1 1.7.8 1.8 1.7h-.2v.5H9zM6.7 1.7v2.1c-1.6.1-2.9 1.4-3 3h-2c.1-2.8 2.3-5 5-5.1zm-5 5.6h2.1c.1 1.6 1.4 2.9 3 3v2.1c-2.8-.2-5-2.4-5.1-5.1zm5.6 5v-2.1c1.6-.1 2.9-1.4 3-3h2.1c-.2 2.8-2.4 5-5.1 5.1z"/></svg>

<?xml version="1.0" encoding="utf-8"?>
<!-- Generator: Adobe Illustrator 21.0.0, SVG Export Plug-In . SVG Version: 6.00 Build 0)  -->
<svg version="1.1" xmlns="http://www.w3.org/2000/svg" xmlns:xlink="http://www.w3.org/1999/xlink" x="0px" y="0px"
	 viewBox="0 0 14 14" style="enable-background:new 0 0 14 14;" xml:space="preserve">
<path d="M14,6.7h-0.9C13,3.6,10.4,1,7.3,0.9V0H6.7v0.9C3.6,1,1,3.6,0.9,6.7H0v0.5h0.9C1,10.4,3.6,13,6.7,13.1V14h0.5v-0.9
	c3.2-0.1,5.7-2.7,5.9-5.9H14V6.7z M12.3,6.7h-2.1c-0.1-1.6-1.4-2.9-3-3V1.7C10,1.8,12.2,4,12.3,6.7z M9,7.3C8.9,8.2,8.2,8.9,7.3,9
	V8.8H6.7V9C5.8,8.9,5.1,8.2,5,7.3h0.2V6.7H5C5.1,5.8,5.8,5.1,6.7,5v0.2h0.5V5C8.2,5.1,8.9,5.8,9,6.7H8.8v0.5H9z M6.7,1.7v2.1
	c-1.6,0.1-2.9,1.4-3,3H1.7C1.8,4,4,1.8,6.7,1.7z M1.7,7.3h2.1c0.1,1.6,1.4,2.9,3,3v2.1C4,12.2,1.8,10,1.7,7.3z M7.3,12.3v-2.1
	c1.6-0.1,2.9-1.4,3-3h2.1C12.2,10,10,12.2,7.3,12.3z"/>
</svg>
